IMB-X-Files/The-Ambassadors-Assets/661015513578f0399506d5bd_﹟33.svg

<svg fill="none" height="106" viewBox="0 0 106 106" width="106" xmlns="http://www.w3.org/2000/svg"><path d="m20.9537 26.618v6.6589m0-6.6589-13.59262 6.209v6.209m13.59262-12.418 8.6417 4.3343m69.0435 41.1984v-6.569l-21.2442-10.6552m21.2442 17.2242-12.5125 6.2989-8.7317-4.3692m21.2442-1.9297-21.2442-10.6306-12.7825-6.3964-43.6585-21.8468m0 0-13.59262 5.7591m0 0 22.23432 11.1259m6.0701-16.1651v-4.4993m0 4.4993 12.4735 6.2562m-12.4735-6.2562-6.0701-3.0445m6.0701-1.4548 24.0858-12.238v12.238m-24.0858 0 12.4735 6.389m11.6123 10.1908-11.6123-5.8243m11.6123 5.8243v-16.5798m0 16.5798 4.8609 2.438m-28.9467-4.5301v36.984l12.4735-5.5724m-12.4735-31.4116-6.0701 3.0595v3.1172m6.0701-6.1767 12.4735 6.209v9.2468m16.4732-.3382-5.5811 2.6995v3.089m5.5811-5.7885v15.9274m0-15.9274 12.7825 6.3889v8.5887m-12.7825.9498 12.7825 5.939m-12.7825-5.939-35.0168 15.7475m47.7993-9.8085-35.6469 16.1974-12.1524-6.3889m47.7993-9.8085v-6.8888m-47.7993 16.6973c0-.5367 0-25.6011 0-40.6158m0 40.6158v-40.6158m18.5436 25.2349 10.8921-4.8659v-5.6396m-10.8921 10.5055v-15.9558m16.4732-52.07992 12.7825 7.19882v40.3666m-12.7825-47.56542-35.0168 17.81712v5.7741m35.0168-23.59122v41.15422m-16.4732-12.6288v4.3665m0-4.3665 11.6123-6.389m-11.6123 29.9435 10.8921 5.4503m5.5811-16.376 12.7825 6.4112" stroke="#fba28e" stroke-linecap="round" stroke-linejoin="round"/></svg>

<svg width="106" height="106" viewBox="0 0 106 106" fill="none" xmlns="http://www.w3.org/2000/svg">
    <path
        d="M20.9537 26.618V33.2769M20.9537 26.618L7.36108 32.827V39.036M20.9537 26.618L29.5954 30.9523M98.6389 72.1507V65.5817L77.3947 54.9265M98.6389 72.1507L86.1264 78.4496L77.3947 74.0804M98.6389 72.1507L77.3947 61.5201L64.6122 55.1237L20.9537 33.2769M20.9537 33.2769L7.36108 39.036M7.36108 39.036L29.5954 50.1619M35.6655 33.9968V29.4975M35.6655 33.9968L48.139 40.253M35.6655 33.9968L29.5954 30.9523M35.6655 29.4975L59.7513 17.2595V29.4975M35.6655 29.4975L48.139 35.8865M59.7513 46.0773L48.139 40.253M59.7513 46.0773V29.4975M59.7513 46.0773L64.6122 48.5153M35.6655 43.9852V80.9692L48.139 75.3968M35.6655 43.9852L29.5954 47.0447C29.5954 48.0211 29.5954 49.0647 29.5954 50.1619M35.6655 43.9852L48.139 50.1942V59.441M64.6122 59.1028L59.0311 61.8023V64.8913M64.6122 59.1028V75.0302M64.6122 59.1028L77.3947 65.4917V74.0804M64.6122 75.0302L77.3947 80.9692M64.6122 75.0302L29.5954 90.7777M77.3947 80.9692L41.7478 97.1666L29.5954 90.7777M77.3947 80.9692V74.0804M29.5954 90.7777C29.5954 90.241 29.5954 65.1766 29.5954 50.1619M29.5954 90.7777V50.1619M48.139 75.3968L59.0311 70.5309V64.8913M48.139 75.3968V59.441M64.6122 7.36108L77.3947 14.5599V54.9265M64.6122 7.36108L29.5954 25.1782V30.9523M64.6122 7.36108V48.5153M48.139 35.8865V40.253M48.139 35.8865L59.7513 29.4975M48.139 59.441L59.0311 64.8913M64.6122 48.5153L77.3947 54.9265"
        stroke="#FBA28E" stroke-linecap="round" stroke-linejoin="round" />
</svg>
